X:1
T:331
T:None
T:Op. 76, no.5, in D major
T:III
T:Joseph Haydn
%%score 1 2 3 4
L:1/8
M:3/4
K:D
V:1 treble 
V:2 treble 
V:3 treble 
V:4 bass 
V:1
 A,2 | D2 F2 A2 | A2 G2 F2 | E2 D2 E2 | EF D2 d2 | B2 ^A2 B2 | ^GA D2 f2 | ^G2 F2 G2 | ^GA A,2 a2 | %9
 ^ga B2 ^ab | B2 fg A2 | ^ga A2 c'd' | ^ab fg ab | fg ^de ^AB | FG ^DE FG | ^DE FG AB | D2 C2 A,2 | %17
 D2 F2 A2 | A2 G2 F2 | E2 D2 E2 | EF D2 d2 | B2 ^A2 B2 | ^GA D2 a2 | g2 f2 g2 | ^ef f2 z2 | %25
 z2 d'2 z2 | d'2 z2 d'2 | z2 d'2 b2 | ^ab G2 b2 | ba e'2 g2 | gf a2 f2 | fe g2 c2 | cd D2 z2 | %33
 z2 z2 c2 | d2 z4 | z2 z2 c2 | d2 z2 c2 | d2 z2 c2 | d2 =f2 f2 | e4 a2 | a2 z2 a2 | a2 z2 a2 | %42
 a2 z2 a2 | a2 z2 ^g2 | a2 z2 cd | e=f ga _bc | de =fd cd | e=f ga _bc | de =f^f ga | %49
 _b=c' d'e =fg | a_b =c'd e=f | ga _bg ed | ce ^ga z2 | z2 z2 c2 | d2 z4 | z2 z2 c2 | d2 z2 c2 | %57
 d2 z2 c2 | d2 z2 f2 | g2 z2 ^g2 | a2 z _b ag | =fe d_b ag | =fe dd' =c'_b | ag =fe d=c | %64
 _BA G=F EA | D2 z4 |] %66
V:2
 z2 | D4 A,2 | B,6 | C6 | CD D2 D2 | D6- | D2 z2 d2 | D6 | C2 z4 | z2 A2 z2 | G2 z2 G2 | z2 F2 A2 | %12
 B2 z2 ^ab | fg ^de ^AB | FG ^DE FG | ^DE FG AB | D2 C2 z2 | D4 A,2 | B,6 | C6 | CD D2 D2 | D6- | %22
 D2 z2 A2 | B4 c2 | cd d2 z2 | z2 d2 z2 | e2 z2 f2 | z2 g2 g2 | fg G2 g2 | g4 e2 | ed f2 A2 | %31
 B2 z2 G2 | F2 D2 z2 | z2 z2 C2 | D2 z4 | z2 z2 C2 | D2 z2 C2 | D2 z2 C2 | D2 d2 d2 | d2 =c2 A2 | %40
 B4 =c2 | d4 =c2 | B4 A2 | B6 | A2 z2 z2 | z6 | z6 | z6 | z3 _e d=c | _BA Gd =cB | AG =F=c _BA | %51
 G=F EF G^G | A2 z4 | z2 z2 C2 | D2 z4 | z2 z2 C2 | D2 z2 C2 | D2 z2 C2 | D2 z2 F2 | G2 z2 ^G2 | %60
 A2 z E =FG | A_B AE =FG | A_B A=F GA | _B2 z4 | c2 z4 | d2 z4 |] %66
V:3
 z2 | F,4 D,2 | D,2 E,2 F,2 | G,6 | G,F, F,2 F,2 | G,2 F,2 G,2 | F,2 z2 A2 | B,6 | A,2 z4 | %9
 z2 F2 z2 | G2 z2 E2 | z2 F2 D2 | D2 z2 ^AB | FG ^DE ^AB | FG ^DE FG | ^DE FG FG | A2 A,2 z2 | %17
 F,4 D,2 | D,2 E,2 F,2 | G,6 | G,F, F,2 F,2 | G,2 F,2 G,2 | F,2 z2 F2 | E4 A,2 | D2 z4 | z2 D2 z2 | %26
 D2 z2 =C2 | z2 B,2 z2 | z2 G2 F2 | E4 A2 | A2 z2 A2 | G2 z2 E2 | D2 D,2 z2 | z2 z2 E2 | D2 z4 | %35
 z2 z2 E2 | D2 z2 E2 | D2 z2 E2 | D2 z4 | z2 A,2 A,2 | A,6- | A,6- | A,6 | =F4 ED | =C2 z2 ED | %45
 C_B, A,G, =F,E, | =F,E, D,=F ED | C_B, A,G, =F,E, | =F,E, D,2 z2 | z6 | z6 | z6 | z6 | z2 z2 E2 | %54
 D2 z4 | z2 z2 E2 | D2 z2 E2 | D2 z2 E2 | D2 z2 A2 | G2 z2 B2 | A2 z C DE | =FG FC DE | =FG FD EF | %63
 G2 z4 | E2 z4 | D2 z4 |] %66
V:4
 z2 | D,,4 F,,2 | G,,6 | A,,6 | D,2 z4 | z6 | z2 z2 D,,2 | E,6 | A,,2 z4 | z2 ^D2 z2 | E2 z2 C2 | %11
 z2 D2 F,2 | G,4 z2 | z2 z2 ^A,B, | F,G, ^D,E, F,G, | ^D,E, F,G, F,G, | A,2 A,,2 z2 | D,,4 F,,2 | %18
 G,,6 | A,,6 | D,2 z4 | z6 | z6 | z6 | z2 z2 D,2 | C,D, F,,2 ^D,E, | G,,2 ^E,F, A,,2 | %27
 F,G, B,,2 z2 | z2 E,2 D,2 | C,4 C,2 | D,2 z2 D,2 | G,,2 z2 A,,2 | D,2 D,,2 D,,E,, | %33
 =F,,G,, A,,_B,, A,,G,, | =F,,E,, D,,E,, F,,G,, | A,,_B,, A,,B,, A,,G,, | =F,,E,, D,,_B,, A,,G,, | %37
 =F,,E,, D,,_B,, A,,G,, | =F,,E,, D,,E,, F,,G,, | A,,^G,, A,,B,, =C,A,, | D,=C, D,A,, E,A,, | %41
 =F,E, F,A,, E,A,, | D,=C, D,A,, C,A,, | D,=C, D,B,, E,E,, | A,,2 A,2 z2 | z6 | z6 | z6 | z6 | z6 | %50
 z6 | z6 | z2 z2 D,,E,, | =F,,G,, A,,_B,, A,,G,, | =F,,E,, D,,E,, F,,G,, | A,,_B,, A,,B,, A,,G,, | %56
 =F,,E,, D,,_B,, A,,G,, | =F,,E,, D,,_B,, A,,G,, | =F,,E,, D,,_E, D,=C, | _B,,A,, G,,=F, E,D, | %60
 C,B,, A,,2 z2 | z6 | z3 D, E,=F, | G,2 z4 | A,2 z4 | D,2 z4 |] %66

